X:133
T: DROBEN AUF DEM KIRCHHOF
N: K2221
O: Europa, Mitteleuropa, Deutschland, Rheinland
R: Kinder - Lied, Reigen, Tanz - Spiel, Brautwerbung
M: 2/4
L: 1/16
K: C
 | G2G2A2B2 | G4E2
C2 | G2G2E2A2 | G4E2
C2 | G2G2E2A2 | G2G2E2
E2 | G2G2E2A2 | G4E2
GG | G2F2E2GG | G2F2E2
EE | F2F2G2G2 | E4z4

@@@ Tune index: 7470
